images/people/people-10.svg

<?xml version="1.0" standalone="no"?><!DOCTYPE svg PUBLIC "-//W3C//DTD SVG 1.1//EN" "http://www.w3.org/Graphics/SVG/1.1/DTD/svg11.dtd"><svg width="120px" height="192px" version="1.1" xmlns="http://www.w3.org/2000/svg" xmlns:xlink="http://www.w3.org/1999/xlink" xml:space="preserve" style="fill-rule:evenodd;clip-rule:evenodd;stroke-linejoin:round;stroke-miterlimit:1.41421;"><g><g id="people-10" transform="matrix(1,0,0,1,-1833.89,-48)"><g transform="matrix(1,0,0,1,0,-12)"><path d="M1908.4,169.33l1.037,5.519l-1.428,7.046l-2.572,-1.444l0.736,-6.06l-0.17,1.837l-2.392,-0.594l2.018,-4.489l2.771,-1.815Z" style="fill:#e1c5b5;fill-rule:nonzero;"/></g><g transform="matrix(1,0,0,1,0,-12)"><path d="M1886.95,233.034l-0.853,6.195l6.039,-0.155l0.465,-6.658l-5.651,0.618Z" style="fill:#ae1f25;fill-rule:nonzero;"/></g><g transform="matrix(1,0,0,1,0,-12)"><path d="M1891.31,242.499l1.219,9.001l4.761,0l0.697,-1.975l-1.24,-8.166l-5.437,1.14Z" style="fill:#ae1f25;fill-rule:nonzero;"/></g><g transform="matrix(1,0,0,1,0,-12)"><path d="M1901.31,145.798l4.264,25.759l3.049,-1.145l-3.802,-29.065l-3.511,4.451Z" style="fill:#e1c5b5;fill-rule:nonzero;"/></g><g transform="matrix(1,0,0,1,0,-12)"><path d="M1892.45,195.562l-0.929,46.917l5.187,-1.083l4.569,-45.989" style="fill:#e1c5b5;fill-rule:nonzero;"/></g><g transform="matrix(1,0,0,1,0,-12)"><path d="M1892.6,178.994l-0.156,19.819l-0.736,33.835l-4.759,0.386l-2.324,-34.433l7.975,-19.607Z" style="fill:#ceab97;fill-rule:nonzero;"/></g><g transform="matrix(1,0,0,1,0,-12)"><path d="M1883.89,143.344l-1.214,27.267l-3.288,-0.238l1.564,-31.123l2.938,4.094Z" style="fill:#e1c5b5;fill-rule:nonzero;"/></g><g transform="matrix(1,0,0,1,0,-12)"><path d="M1879.38,170.277l-0.295,4.335l2.928,6.144l2.4,-1.423l-2.129,-5.506l0.358,1.809l2.021,-1.636l-2.037,-3.326l-3.246,-0.397Z" style="fill:#e1c5b5;fill-rule:nonzero;"/></g><g transform="matrix(1,0,0,1,0,-12)"><path d="M1880.99,139.198l5.702,-2.352l2.275,5.603l8.051,0.233l2.708,-4.994l5.19,3.563l1.804,14.593l-3.593,0.687l-1.696,-10.675l-0.433,14.394l7.208,45.15l-29.847,0.233l6.889,-44.883l-1.314,-17.371l-0.62,12.746l-3.156,-0.125l0.832,-16.802Z" style="fill:#ae1f25;fill-rule:nonzero;"/></g><g transform="matrix(1,0,0,1,0,-12)"><path d="M1904.29,154.083l-2.957,-37.458l-8.467,-3.421l0.008,-0.121l-9.334,4.25l-1.332,36.418l4.248,3.249l14.233,0.5l3.601,-3.417Z" style="fill:#f5f3e9;fill-rule:nonzero;"/></g></g></g></svg>

<?xml version="1.0" encoding="UTF-8" standalone="no"?>
<!DOCTYPE svg PUBLIC "-//W3C//DTD SVG 1.1//EN" "http://www.w3.org/Graphics/SVG/1.1/DTD/svg11.dtd">
<svg width="100%" height="100%" viewBox="0 0 140 220" version="1.1" xmlns="http://www.w3.org/2000/svg" xmlns:xlink="http://www.w3.org/1999/xlink" xml:space="preserve" xmlns:serif="http://www.serif.com/" style="fill-rule:evenodd;clip-rule:evenodd;stroke-linejoin:round;stroke-miterlimit:2;">
    <g id="people-10" transform="matrix(1.27,0,0,1.27,-2335.25,-84.8)">
        <g transform="matrix(1,0,0,1,0,-12)">
            <path d="M1908.4,169.33L1909.43,174.849L1908.01,181.895L1905.43,180.451L1906.17,174.391L1906,176.228L1903.61,175.634L1905.62,171.145L1908.4,169.33Z" style="fill:rgb(225,197,181);fill-rule:nonzero;"/>
        </g>
        <g transform="matrix(1,0,0,1,0,-12)">
            <path d="M1886.95,233.034L1886.1,239.229L1892.14,239.074L1892.6,232.416L1886.95,233.034Z" style="fill:rgb(174,31,37);fill-rule:nonzero;"/>
        </g>
        <g transform="matrix(1,0,0,1,0,-12)">
            <path d="M1891.31,242.499L1892.53,251.5L1897.29,251.5L1897.98,249.525L1896.74,241.359L1891.31,242.499Z" style="fill:rgb(174,31,37);fill-rule:nonzero;"/>
        </g>
        <g transform="matrix(1,0,0,1,0,-12)">
            <path d="M1901.31,145.798L1905.58,171.557L1908.62,170.412L1904.82,141.347L1901.31,145.798Z" style="fill:rgb(225,197,181);fill-rule:nonzero;"/>
        </g>
        <g transform="matrix(1,0,0,1,0,-12)">
            <path d="M1892.45,195.563L1891.52,242.48L1896.7,241.397L1901.27,195.408" style="fill:rgb(225,197,181);fill-rule:nonzero;"/>
        </g>
        <g transform="matrix(1,0,0,1,0,-12)">
            <path d="M1892.6,178.994L1892.45,198.813L1891.71,232.648L1886.95,233.034L1884.63,198.601L1892.6,178.994Z" style="fill:rgb(206,171,151);fill-rule:nonzero;"/>
        </g>
        <g transform="matrix(1,0,0,1,0,-12)">
            <path d="M1883.89,143.344L1882.68,170.611L1879.39,170.373L1880.95,139.25L1883.89,143.344Z" style="fill:rgb(225,197,181);fill-rule:nonzero;"/>
        </g>
        <g transform="matrix(1,0,0,1,0,-12)">
            <path d="M1879.38,170.277L1879.09,174.612L1882.01,180.756L1884.41,179.333L1882.29,173.827L1882.64,175.636L1884.66,174L1882.63,170.674L1879.38,170.277Z" style="fill:rgb(225,197,181);fill-rule:nonzero;"/>
        </g>
        <g transform="matrix(1,0,0,1,0,-12)">
            <path d="M1880.99,139.198L1886.69,136.846L1888.97,142.449L1897.02,142.682L1899.72,137.688L1904.91,141.251L1906.72,155.844L1903.12,156.531L1901.43,145.856L1901,160.25L1908.2,205.4L1878.36,205.633L1885.25,160.75L1883.93,143.379L1883.31,156.125L1880.16,156L1880.99,139.198Z" style="fill:rgb(174,31,37);fill-rule:nonzero;"/>
        </g>
        <g transform="matrix(1,0,0,1,0,-12)">
            <path d="M1904.29,154.083L1901.33,116.625L1892.87,113.204L1892.88,113.083L1883.54,117.333L1882.21,153.751L1886.46,157L1900.69,157.5L1904.29,154.083Z" style="fill:rgb(245,243,233);fill-rule:nonzero;"/>
        </g>
    </g>
</svg>
